Images/promotions.svg

<svg width="41" height="40" viewBox="0 0 41 40" fill="none" xmlns="http://www.w3.org/2000/svg">
<ellipse cx="27.5" cy="33" rx="12" ry="3" fill="#E2E2E2"/>
<path d="M26.8736 8.50787L27.5017 8.49256C27.9569 8.48381 28.4734 8.62824 29.0249 8.94557C30.8501 9.99823 32.3295 12.5631 32.3295 14.6706C32.3295 15.3075 32.196 15.8261 31.9575 16.2179L27.7928 23.0569L22.5448 31.6751C23.1926 30.5393 23.5581 29.0446 23.5581 27.2435C23.5581 20.991 19.168 13.3882 13.7515 10.2608C12.1779 9.35263 10.6898 8.9215 9.37012 8.9215L26.8715 8.51006L26.8736 8.50787Z" fill="#EFF1FF"/>
<path d="M29.5053 25.8008C29.188 26.0569 28.8772 26.1225 28.6278 26.0241C28.3805 25.9256 28.1966 25.6673 28.1353 25.269L28.1025 25.0567L29.2383 24.1441C29.7855 23.7042 30.302 23.1177 30.7441 22.4328C31.2452 21.658 31.5034 20.752 31.4947 19.8306L31.4597 17.0338L31.6304 16.7558L32.9347 16.3203L33.0157 16.5633L33.0638 20.4478C33.0748 21.3166 32.8538 22.1833 32.392 22.9208C31.9324 23.6561 31.3919 24.2886 30.8097 24.7547L29.5053 25.8008Z" fill="#3543BF"/>
<path d="M28.1356 25.2711C28.1968 25.6694 28.3807 25.9299 28.628 26.0262L27.0588 25.4178C26.875 25.3456 26.7284 25.188 26.6387 24.9516L27.7898 23.0586L28.1334 25.2711H28.1356Z" fill="#0F0F0F"/>
<path d="M29.0243 8.94552C28.4728 8.62819 27.9563 8.48376 27.5011 8.49251L26.873 8.50782L29.6612 6.03701C30.379 5.40017 31.4907 5.36953 32.7403 6.09173C34.9069 7.34135 36.6599 10.3812 36.6599 12.8804C36.6599 14.3248 36.0756 15.2702 35.1652 15.5766L31.6308 16.7562L31.9569 16.2178C32.1954 15.8261 32.3289 15.3074 32.3289 14.6706C32.3289 12.5631 30.8495 10.0004 29.0243 8.94552Z" fill="#F2A526"/>
<path d="M23.5572 27.2399C23.5572 29.0411 23.1918 30.5358 22.544 31.6716L22.4564 31.8204C20.8238 34.5057 17.5367 35.0856 13.7506 32.8993C8.33634 29.772 3.94629 22.1692 3.94629 15.9167C3.94629 11.4807 6.15442 8.91797 9.3693 8.91797C10.6868 8.91797 12.1771 9.3491 13.7506 10.2573C19.1671 13.3847 23.5572 20.9853 23.5572 27.2399ZM14.219 30.9122C18.5544 33.7135 21.8612 31.8029 21.6051 26.6491C21.5176 24.9048 21.0339 23.0118 20.2636 21.1625C19.5829 19.5255 18.6748 17.9214 17.6199 16.4857C16.3462 14.7503 14.858 13.2599 13.2867 12.2445C8.95133 9.44319 5.64454 11.3538 5.90059 16.5076C6.15883 21.6615 9.88362 28.111 14.2168 30.9122H14.219Z" fill="#C2C7EC"/>
<path d="M21.6032 26.6561C21.8615 31.81 18.5525 33.7205 14.2171 30.9193C9.88171 28.118 6.15691 21.6708 5.90086 16.5147C5.64262 11.3608 8.95161 9.45026 13.287 12.2515C14.8583 13.267 16.3465 14.7595 17.6202 16.4928L12.9631 20.1957C12.265 20.7516 12.0592 21.7473 12.5166 22.544C12.9762 23.3384 13.9413 23.6601 14.7708 23.3318L20.2616 21.1674C21.032 23.0167 21.5157 24.9097 21.6032 26.6539V26.6561Z" fill="#3543BF"/>
<path d="M20.2616 21.1629L14.7707 23.3273C13.9413 23.6534 12.9762 23.3317 12.5166 22.5394C12.0592 21.7428 12.2649 20.7471 12.9631 20.1912L17.6201 16.4883C18.6728 17.9239 19.581 19.5259 20.2638 21.1651L20.2616 21.1629Z" fill="url(#paint0_linear_1227_34771)"/>
<path d="M18.1582 34.5703C16.7619 34.5703 15.2059 34.1107 13.5886 33.1762C8.09114 30.0029 3.62012 22.2557 3.62012 15.9091C3.62012 11.4577 5.87858 8.58203 9.3714 8.58203C10.7961 8.58203 12.3259 9.04817 13.9169 9.96514C19.4143 13.1384 23.8876 20.8857 23.8876 27.2323C23.8876 29.0531 23.5331 30.5982 22.8306 31.8281C22.8152 31.8565 22.7955 31.8806 22.7737 31.9025C22.7649 31.9309 22.754 31.9572 22.7387 31.9835C21.6969 33.6971 20.0819 34.5703 18.1582 34.5703ZM9.3714 9.23858C6.22874 9.23858 4.27666 11.7947 4.27666 15.9091C4.27666 22.0478 8.60106 29.5368 13.9169 32.6072C17.4206 34.6293 20.5874 34.2595 22.1784 31.6421C22.1937 31.618 22.2112 31.5961 22.2309 31.5764C22.2375 31.5501 22.2485 31.5261 22.2616 31.502C22.905 30.3727 23.2311 28.9371 23.2311 27.2323C23.2311 21.0936 18.9044 13.6024 13.5886 10.5342C12.1201 9.68722 10.6626 9.23858 9.3714 9.23858Z" fill="#0F0F0F"/>
<path d="M17.903 32.5365C16.741 32.5365 15.4213 32.0835 14.0404 31.1906C9.63279 28.3434 5.83579 21.7648 5.57317 16.5278C5.44186 13.906 6.20126 11.9823 7.70694 11.1113C9.21261 10.2403 11.2589 10.5467 13.4648 11.9714C15.0165 12.9737 16.544 14.4684 17.8834 16.2958C18.9514 17.7511 19.8793 19.3925 20.5643 21.0404C21.3718 22.9794 21.8445 24.914 21.9299 26.6364C22.0612 29.2582 21.3018 31.1819 19.7961 32.0529C19.2337 32.3768 18.5946 32.5387 17.903 32.5387V32.5365ZM9.60653 11.282C9.02658 11.282 8.49917 11.4133 8.0374 11.6803C6.75495 12.42 6.11373 14.1314 6.22971 16.495C6.48139 21.5482 10.1471 27.8926 14.3971 30.6391C16.3843 31.9238 18.1876 32.2214 19.47 31.4817C20.7525 30.742 21.3937 29.0306 21.2777 26.667C21.1946 25.0191 20.7393 23.1611 19.9602 21.2899C19.2949 19.6902 18.3933 18.0969 17.3559 16.6832C16.0625 14.9214 14.5941 13.4814 13.1103 12.5229C11.8366 11.7 10.6395 11.282 9.60653 11.282Z" fill="#0F0F0F"/>
<path d="M31.6329 17.0764C31.495 17.0764 31.3681 16.9888 31.3221 16.851C31.2652 16.6781 31.3571 16.4942 31.53 16.4351L35.0644 15.2555C35.872 14.9842 36.3338 14.1175 36.3338 12.8723C36.3338 10.4803 34.6486 7.56084 32.5783 6.36593C31.4994 5.74221 30.5168 5.7094 29.8799 6.27184L27.0896 8.74481C26.9539 8.86517 26.746 8.85204 26.6256 8.71636C26.5053 8.58067 26.5184 8.37277 26.6541 8.2524L29.4444 5.77943C30.3045 5.01565 31.5672 5.0222 32.9066 5.79474C35.1585 7.09251 36.9903 10.2658 36.9903 12.8679C36.9903 14.413 36.3644 15.5094 35.2723 15.8749L31.7379 17.0545C31.7029 17.0654 31.6679 17.072 31.635 17.072L31.6329 17.0764Z" fill="#0F0F0F"/>
<path d="M27.7922 23.3734C27.7331 23.3734 27.674 23.3581 27.6215 23.3253C27.4661 23.2312 27.418 23.0298 27.5121 22.8744L31.679 16.0354C31.8934 15.6831 32.0029 15.2191 32.0029 14.6589C32.0029 12.6586 30.5934 10.2185 28.8624 9.21833C28.3831 8.94258 27.9279 8.80033 27.5099 8.80908L9.24045 9.23582C9.05662 9.23582 8.90779 9.09577 8.90342 8.91631C8.89904 8.73467 9.04347 8.58366 9.22293 8.57928L27.4924 8.15254C28.0285 8.14597 28.5954 8.3079 29.1862 8.6493C31.099 9.75229 32.6572 12.4485 32.6572 14.6589C32.6572 15.3417 32.5149 15.9194 32.237 16.3768L28.0702 23.2158C28.0089 23.3165 27.8994 23.3734 27.79 23.3734H27.7922Z" fill="#0F0F0F"/>
<path d="M22.4561 32.1457C22.397 32.1457 22.3379 32.1304 22.2854 32.0976C22.13 32.0035 22.0819 31.8021 22.176 31.6467L27.5115 22.884C27.6056 22.7286 27.8092 22.6805 27.9624 22.7746C28.1177 22.8687 28.1659 23.0701 28.0718 23.2254L22.7362 31.9881C22.675 32.0888 22.5655 32.1457 22.4561 32.1457Z" fill="#0F0F0F"/>
<path d="M14.1112 23.7723C13.3583 23.7723 12.6252 23.3762 12.2312 22.6956C11.7016 21.7742 11.9293 20.5859 12.7565 19.9271L17.4135 16.2242C17.5558 16.1104 17.7615 16.1345 17.8753 16.2768C17.9891 16.419 17.9651 16.6247 17.8228 16.7385L13.1657 20.4414C12.5901 20.8988 12.4326 21.7283 12.8003 22.3673C13.1701 23.0041 13.9645 23.2843 14.6495 23.0151L20.1404 20.8507C20.3089 20.785 20.4993 20.866 20.5672 21.0367C20.6328 21.2052 20.5496 21.3956 20.3811 21.4635L14.8903 23.6279C14.6364 23.7285 14.3738 23.7745 14.1112 23.7745V23.7723Z" fill="#0F0F0F"/>
<path d="M28.1032 25.3787C28.0069 25.3787 27.9128 25.3372 27.8472 25.2562C27.7334 25.114 27.7553 24.9082 27.8975 24.7944L29.0333 23.8818C29.5498 23.4682 30.0466 22.9014 30.469 22.2492C30.9351 21.5292 31.1758 20.691 31.1671 19.8288L31.1321 17.0319C31.1299 16.8502 31.2743 16.7014 31.456 16.6992H31.4604C31.6398 16.6992 31.7864 16.8437 31.7886 17.0231L31.8236 19.82C31.8346 20.8136 31.5566 21.7765 31.0205 22.6059C30.5587 23.3172 30.0138 23.9365 29.4448 24.3939L28.3067 25.3065C28.2454 25.3547 28.1732 25.3787 28.101 25.3787H28.1032Z" fill="#0F0F0F"/>
<path d="M28.8569 26.3938C28.7366 26.3938 28.6184 26.3719 28.509 26.3281C28.1369 26.1815 27.8896 25.8226 27.8108 25.317L27.4673 23.1045C27.4651 23.087 27.4629 23.0716 27.4629 23.0541C27.4629 22.8725 27.6095 22.7259 27.7912 22.7259C27.9619 22.7259 28.0997 22.8528 28.1172 23.0191L28.4587 25.2164C28.5002 25.479 28.6053 25.6606 28.7475 25.7175C28.8898 25.7744 29.0911 25.7088 29.299 25.5424L30.6033 24.4963C31.1483 24.0586 31.6692 23.4525 32.1134 22.7434C32.5314 22.0759 32.748 21.2815 32.7349 20.4477L32.6868 16.5631C32.6868 16.3815 32.829 16.2327 33.0107 16.2305H33.015C33.1945 16.2305 33.3411 16.3749 33.3433 16.5544L33.3915 20.4389C33.4046 21.3975 33.1551 22.3144 32.6693 23.0914C32.1878 23.8617 31.6144 24.5248 31.0148 25.0085L29.7105 26.0545C29.4347 26.2778 29.1371 26.3938 28.8569 26.3938Z" fill="#0F0F0F"/>
<path d="M28.627 26.3476C28.5876 26.3476 28.546 26.341 28.5088 26.3257L26.9397 25.7151C26.6617 25.6057 26.4516 25.3781 26.3313 25.0564C26.2678 24.8857 26.3554 24.6975 26.5239 24.634C26.6946 24.5705 26.8828 24.6581 26.9462 24.8266C26.9834 24.9251 27.0535 25.0542 27.1782 25.1023L28.7473 25.7107C28.9159 25.7764 28.999 25.9668 28.9334 26.1375C28.8831 26.2666 28.7583 26.3476 28.627 26.3476Z" fill="#0F0F0F"/>
<defs>
<linearGradient id="paint0_linear_1227_34771" x1="12.2725" y1="23.4534" x2="19.1723" y2="15.5369" gradientUnits="userSpaceOnUse">
<stop stop-color="#43E1A8"/>
<stop offset="1" stop-color="#219393"/>
</linearGradient>
</defs>
</svg>

<svg width="41" height="40" viewBox="0 0 41 40" fill="none" xmlns="http://www.w3.org/2000/svg">
    <ellipse cx="27.5" cy="33" rx="12" ry="3" fill="#E2E2E2"/>
    <path d="m26.874 8.508.628-.015c.455-.01.971.135 1.523.453 1.825 1.052 3.305 3.617 3.305 5.725 0 .636-.134 1.155-.372 1.547l-4.165 6.839-5.248 8.618c.648-1.136 1.013-2.63 1.013-4.431 0-6.253-4.39-13.856-9.806-16.983-1.574-.908-3.062-1.34-4.382-1.34l17.502-.41.002-.003z" fill="#EFF1FF"/>
    <path d="M29.505 25.8c-.317.257-.628.322-.877.224-.247-.098-.431-.357-.493-.755l-.033-.212 1.136-.913c.547-.44 1.064-1.026 1.506-1.711.501-.775.76-1.681.75-2.602l-.034-2.797.17-.278 1.305-.436.08.243.049 3.885a4.553 4.553 0 0 1-.672 2.473c-.46.735-1 1.368-1.582 1.834L29.505 25.8z" fill="#3543BF"/>
    <path d="M28.136 25.271c.06.398.245.659.492.755l-1.57-.608c-.183-.072-.33-.23-.42-.466l1.152-1.893.343 2.212h.003z" fill="#0F0F0F"/>
    <path d="M29.024 8.946c-.551-.318-1.068-.462-1.523-.453l-.628.015 2.788-2.471c.718-.637 1.83-.667 3.08.055 2.166 1.25 3.919 4.29 3.919 6.788 0 1.445-.584 2.39-1.495 2.697l-3.534 1.18.326-.54c.238-.39.372-.91.372-1.546 0-2.108-1.48-4.67-3.305-5.725z" fill="#F2A526"/>
    <path d="M23.557 27.24c0 1.801-.365 3.296-1.013 4.432l-.088.148c-1.632 2.686-4.92 3.266-8.705 1.08-5.415-3.128-9.805-10.73-9.805-16.983 0-4.436 2.208-6.999 5.423-6.999 1.318 0 2.808.431 4.382 1.34 5.416 3.127 9.806 10.727 9.806 16.982zm-9.338 3.672c4.335 2.802 7.642.89 7.386-4.263-.087-1.744-.571-3.637-1.341-5.486a22.726 22.726 0 0 0-2.644-4.677c-1.274-1.736-2.762-3.226-4.333-4.242-4.336-2.8-7.642-.89-7.386 4.264.258 5.154 3.983 11.603 8.316 14.404h.002z" fill="#C2C7EC"/>
    <path d="M21.603 26.656c.258 5.154-3.05 7.065-7.386 4.263-4.335-2.801-8.06-9.248-8.316-14.404-.258-5.154 3.05-7.065 7.386-4.264 1.571 1.016 3.06 2.508 4.333 4.242l-4.657 3.703a1.83 1.83 0 0 0 1.808 3.136l5.49-2.165c.771 1.85 1.255 3.743 1.342 5.487v.002z" fill="#3543BF"/>
    <path d="m20.262 21.163-5.491 2.164a1.834 1.834 0 0 1-2.254-.788 1.835 1.835 0 0 1 .446-2.348l4.657-3.703a22.866 22.866 0 0 1 2.644 4.677l-.002-.002z" fill="url(#e1z7vc5ega)"/>
    <path d="M18.158 34.57c-1.396 0-2.952-.46-4.57-1.394C8.092 30.003 3.62 22.256 3.62 15.91c0-4.451 2.259-7.327 5.751-7.327 1.425 0 2.955.466 4.546 1.383 5.497 3.173 9.97 10.92 9.97 17.267 0 1.821-.354 3.366-1.056 4.596a.325.325 0 0 1-.057.075.383.383 0 0 1-.035.08c-1.042 1.714-2.657 2.587-4.58 2.587zM9.371 9.24c-3.142 0-5.094 2.556-5.094 6.67 0 6.139 4.324 13.628 9.64 16.698 3.504 2.022 6.67 1.653 8.261-.965a.382.382 0 0 1 .053-.066.317.317 0 0 1 .03-.074c.644-1.13.97-2.565.97-4.27 0-6.138-4.327-13.63-9.642-16.698C12.12 9.687 10.663 9.24 9.37 9.24z" fill="#0F0F0F"/>
    <path d="M17.903 32.537c-1.162 0-2.482-.453-3.863-1.346-4.407-2.848-8.204-9.426-8.467-14.663-.131-2.622.628-4.546 2.134-5.417 1.506-.87 3.552-.564 5.758.86 1.552 1.003 3.079 2.497 4.418 4.325a23.199 23.199 0 0 1 2.681 4.744c.808 1.94 1.28 3.874 1.366 5.596.131 2.622-.628 4.546-2.134 5.417a3.745 3.745 0 0 1-1.893.486v-.002zM9.607 11.282c-.58 0-1.108.131-1.57.398-1.282.74-1.923 2.451-1.807 4.815.251 5.053 3.917 11.398 8.167 14.144 1.987 1.285 3.79 1.582 5.073.843 1.283-.74 1.924-2.451 1.808-4.815-.083-1.648-.539-3.506-1.318-5.377a22.546 22.546 0 0 0-2.604-4.607c-1.294-1.762-2.762-3.202-4.246-4.16-1.273-.823-2.47-1.241-3.503-1.241zM31.633 17.076a.33.33 0 0 1-.103-.641l3.534-1.18c.808-.27 1.27-1.138 1.27-2.383 0-2.392-1.685-5.311-3.756-6.506-1.079-.624-2.061-.657-2.698-.094l-2.79 2.473a.329.329 0 0 1-.436-.493l2.79-2.473c.86-.763 2.123-.757 3.463.016 2.252 1.298 4.083 4.47 4.083 7.073 0 1.545-.626 2.641-1.718 3.007l-3.534 1.18a.351.351 0 0 1-.103.017l-.002.004z" fill="#0F0F0F"/>
    <path d="M27.792 23.373a.327.327 0 0 1-.28-.499l4.167-6.839c.214-.352.324-.816.324-1.376 0-2-1.41-4.44-3.14-5.44-.48-.276-.935-.419-1.353-.41l-18.27.427a.33.33 0 0 1-.337-.32.33.33 0 0 1 .32-.337l18.27-.426c.536-.007 1.102.155 1.693.496 1.913 1.103 3.471 3.8 3.471 6.01 0 .683-.142 1.26-.42 1.718l-4.167 6.839a.33.33 0 0 1-.28.157h.002z" fill="#0F0F0F"/>
    <path d="M22.456 32.146a.327.327 0 0 1-.28-.499l5.335-8.763a.328.328 0 1 1 .56.341l-5.335 8.763a.33.33 0 0 1-.28.158zM14.111 23.772a2.179 2.179 0 0 1-1.88-1.076 2.174 2.174 0 0 1 .526-2.769l4.656-3.703a.328.328 0 0 1 .462.053.328.328 0 0 1-.052.461l-4.657 3.703a1.513 1.513 0 0 0-.366 1.926c.37.637 1.164.917 1.85.648l5.49-2.164a.33.33 0 0 1 .241.613l-5.49 2.164c-.255.1-.517.146-.78.146v-.002zM28.103 25.379a.328.328 0 0 1-.206-.584l1.136-.913c.517-.414 1.014-.98 1.436-1.633a4.36 4.36 0 0 0 .698-2.42l-.035-2.797a.328.328 0 0 1 .324-.333h.004c.18 0 .326.145.329.324l.035 2.797a5.013 5.013 0 0 1-.804 2.786c-.461.711-1.006 1.33-1.575 1.788l-1.138.913a.332.332 0 0 1-.206.072h.002z" fill="#0F0F0F"/>
    <path d="M28.857 26.394a.936.936 0 0 1-.348-.066c-.372-.146-.62-.505-.698-1.011l-.344-2.212c-.002-.018-.004-.033-.004-.05a.328.328 0 0 1 .654-.036l.342 2.197c.041.263.146.445.288.502.143.056.344-.01.552-.176l1.304-1.046c.545-.437 1.066-1.043 1.51-1.753a4.188 4.188 0 0 0 .622-2.295l-.048-3.885a.33.33 0 0 1 .324-.332h.004c.18 0 .326.144.328.323l.048 3.885a4.86 4.86 0 0 1-.722 2.652c-.481.77-1.055 1.434-1.654 1.918l-1.305 1.046c-.275.223-.573.339-.853.339z" fill="#0F0F0F"/>
    <path d="M28.627 26.348a.315.315 0 0 1-.118-.022l-1.57-.61c-.277-.11-.487-.338-.608-.66a.329.329 0 0 1 .615-.23c.037.1.107.228.232.276l1.57.609a.33.33 0 0 1-.121.637z" fill="#0F0F0F"/>
    <defs>
        <linearGradient id="e1z7vc5ega" x1="12.273" y1="23.453" x2="19.172" y2="15.537" gradientUnits="userSpaceOnUse">
            <stop stop-color="#43E1A8"/>
            <stop offset="1" stop-color="#219393"/>
        </linearGradient>
    </defs>
</svg>
